X:1
T:Blue Moon
C:Richard Rogers
Z:All Rights Reserved
L:1/8
Q:1/4=96
M:4/4
K:Ab
V:1 treble nm="MusicXML Part"
%%MIDI program 0
V:1
 ff |:"Fm7" z4 AB B2 | z3 A BcEF | z8 | z4 z2 ff |"Db7" z4 AB B2 | z3 A BcEF | z8 | z4 cece | %9
"Dm7" F3 F- F4- | F4 cece | F3 F- F4- | F4- F2 EF |"Fm7" z8 | z8 | z8 | z4 z2 ff :| %17

